X:1
T:Repulsive By Vaginal Reek
T:(transcribed by Dylan Paclawski) Inveracity Circle Of Perversion (2003)
T:Inveracity
T:www.brutaltabs.com
T:www.brutaltabs.com
T:www.brutaltabs.com
T:www.brutaltabs.com
T:www.brutaltabs.com
T:www.brutaltabs.com
Z:www.brutaltabs.com
%%score 1 2
L:1/8
Q:1/4=190
M:6/4
K:C
V:1 treble-8 nm="gtr. 1"
V:2 treble-8 nm="gtr. 2"
V:1
"^1""_P.M." [_E,_B,]2 [=E,=B,][_E,_B,]_E=E ^F,=F,A,B, (D/_E/D/E/) | %1
 _B,/B,/B,/B,/ ^F,/F,/F,/F,/ E,/E,/E,/E,/ =B,/B,/B,/B,/ G,/G,/G,/G,/ _E,/E,/E,/E,/ | %2
 [_B,F]2 .[^F,^C]2 .[E,=B,]2 [B,^F]2 .[G,D]2 .[_E,_B,]2 || %3
"^2""_P.M." _B,^F,E,=B,G,_E, _B,F,=E,=B,G,_E, || %4
"^3" _B,/B,/B,/B,/ ^F,/F,/F,/F,/ E,/E,/E,/E,/ =B,/B,/B,/B,/ G,/G,/G,/G,/ _E,/E,/E,/E,/ | %5
 _B,/B,/B,/B,/ ^F,/F,/F,/F,/ E,/E,/E,/E,/ =B,/B,/B,/B,/ G,/G,/G,/G,/ [_E,_B,] z |: %6
[M:8/4]"^4"[Q:1/4=165]"_P.M." [F,C][E,B,][_E,_B,][=E,=B,][D,A,][_E,_B,][F,C][=E,=B,][_E,_B,][=E,=B,][^G,_E]"_P.M."[E,B,][_E,_B,][A,=E][B,F][=E,=B,] | %7
"_P.M." [F,C][E,B,][_E,_B,][=E,=B,][D,A,][_E,_B,][F,C][=E,=B,][_E,_B,][=E,=B,]_B,^F,E,=B,G,_E, :| %8
[M:5/4]"^5" [F,C][E,B,][^G,_E]"_P.M."[_E,_B,][F,C][=E,=B,] [^F,^C][=F,=C][E,B,][_E,_B,] || %9
[M:8/4]"^4" [F,C][E,B,][_E,_B,][=E,=B,][D,A,][_E,_B,][F,C][=E,=B,][_E,_B,][=E,=B,][^G,_E]"_P.M."[E,B,][_E,_B,][A,=E][B,F][=E,=B,] | %10
"_P.M." [F,C][E,B,][_E,_B,][=E,=B,][D,A,][_E,_B,][F,C][=E,=B,][_E,_B,][=E,=B,]_B,^F,E,=B,G,_E, | %11
[M:3/4] [_B,F] z z4 |"_P.M." _B,E, _E,G, ^F,G, | [_B,F] z z4 || %14
[M:6/4]"^2""_P.M." _B,^F,E,=B,G,_E, _B,F,=E,=B,G,_E, || %15
"^3" _B,/B,/B,/B,/ ^F,/F,/F,/F,/ E,/E,/E,/E,/ =B,/B,/B,/B,/ G,/G,/G,/G,/ _E,/E,/E,/E,/ | %16
 _B,/B,/B,/B,/ ^F,/F,/F,/F,/ E,/E,/E,/E,/ =B,/B,/B,/B,/ G,/G,/G,/G,/ [_E,_B,] z || %17
[M:8/4]"^6"[Q:1/4=224]"_P.M." G,_B,G,B,(3(^F,G,F,)"_P.M."D,D,G,B,G,B,(3(B,^CB,)"_P.M."D,D, | %18
 G,_B,G,B,(3(^F,G,F,)"_P.M."D,D,G,B,G,B,(3(B,^CB,)"_P.M."D,D, || %19
"^7"[Q:1/4=200] ^F,G,F,D,=F,D,F,D,F,^G,F,D,^F,A,F,D, || %20
[M:6/4]"^1" [_E,_B,]2 [=E,=B,][_E,_B,]_E=E ^F,=F,A,B, (D/_E/D/E/) | %21
 _B,/B,/B,/B,/ ^F,/F,/F,/F,/ E,/E,/E,/E,/ =B,/B,/B,/B,/ G,/G,/G,/G,/ _E,/E,/E,/E,/ | %22
 [_B,F]2 .[^F,^C]2 .[E,=B,]2 [B,^F]2 .[G,D]2 .[_E,_B,]2 || %23
"^2""_P.M." _B,^F,E,=B,G,_E, _B,F,=E,=B,G,_E, || %24
"^3" _B,/B,/B,/B,/ ^F,/F,/F,/F,/ E,/E,/E,/E,/ =B,/B,/B,/B,/ G,/G,/G,/G,/ _E,/E,/E,/E,/ | %25
 _B,/B,/B,/B,/ ^F,/F,/F,/F,/ E,/E,/E,/E,/ =B,/B,/B,/B,/ G,/G,/G,/G,/ [_E,_B,] z |: %26
[M:8/4]"^4"[Q:1/4=165]"_P.M." [F,C][E,B,][_E,_B,][=E,=B,][D,A,][_E,_B,][F,C][=E,=B,][_E,_B,][=E,=B,][^G,_E]"_P.M."[E,B,][_E,_B,][A,=E][B,F][=E,=B,] | %27
"_P.M." [F,C][E,B,][_E,_B,][=E,=B,][D,A,][_E,_B,][F,C][=E,=B,][_E,_B,][=E,=B,]_B,^F,E,=B,G,_E, :| %28
[M:5/4]"^5" [F,C][E,B,][^G,_E]"_P.M."[_E,_B,][F,C][=E,=B,] [^F,^C][=F,=C][E,B,][_E,_B,] || %29
[M:4/4]"^8"[Q:1/4=145] [^G,_E]"_P.M."[_E,_B,][F,C][=E,=B,] [^F,^C][=F,=C][E,B,][_E,_B,] || %30
[M:8/4]"^9"[Q:1/4=190] ^G,/G,/G,/G,/_E,/E,/E,/E,/F,/F,/F,/F,/=E,/E,/E,/E,/F/F/F/F/F,/F,/F,/F,/^F,/F,/F,/F,/=F,/F,/F,/F,/ || %31
[M:6/4]"^10"!ff![Q:1/4=165] !-(![^F,^F]!-(![G,G]!-)![F,F]"_P.M."[F,^C][=F,=C][F,C] [F,C][E,B,][E,B,]!-(![_E,_E]!-(![=E,=E]!-)![_E,_E] || %32
[M:8/4]"^9"[Q:1/4=187] ^G,/G,/G,/G,/_E,/E,/E,/E,/F,/F,/F,/F,/=E,/E,/E,/E,/F/F/F/F/F,/F,/F,/F,/^F,/F,/F,/F,/=F,/F,/F,/F,/ || %33
[M:6/4]"^10" !-(![^F,^F]!-(![G,G]!-)![F,F]"_P.M."[F,^C][=F,=C][F,C] [F,C][E,B,][E,B,]!-(![_E,_E]!-(![=E,=E]!-)![_E,_E] || %34
[M:4/4]"^5"[Q:1/4=145] [^G,_E]"_P.M."[_E,_B,][F,C][=E,=B,] [^F,^C][=F,=C][E,B,][_E,_B,] | %35
 [^G,_E] z z6 |] %36
V:2
"_P.M." [_E,_B,]2 [=E,=B,][_E,_B,]_E=E ^F,=F,A,B, (D/_E/D/E/) | %1
 _B,/B,/B,/B,/ ^F,/F,/F,/F,/ E,/E,/E,/E,/ =B,/B,/B,/B,/ G,/G,/G,/G,/ _E,/E,/E,/E,/ | %2
 [_B,F]2 .[^F,^C]2 .[E,=B,]2 [B,^F]2 .[G,D]2 .[_E,_B,]2 || %3
"_P.M." _B,^F,E,=B,G,_E, _B,F,=E,=B,G,_E, || %4
 _B,/B,/B,/B,/ ^F,/F,/F,/F,/ E,/E,/E,/E,/ =B,/B,/B,/B,/ G,/G,/G,/G,/ _E,/E,/E,/E,/ | %5
 _B,/B,/B,/B,/ ^F,/F,/F,/F,/ E,/E,/E,/E,/ =B,/B,/B,/B,/ G,/G,/G,/G,/ [_E,_B,] z |: %6
[M:8/4]"_P.M." [F,C][E,B,][_E,_B,][=E,=B,][D,A,][_E,_B,][F,C][=E,=B,][_E,_B,][=E,=B,][^G,_E]"_P.M."[E,B,][_E,_B,][A,=E][B,F][=E,=B,] | %7
"_P.M." [F,C][E,B,][_E,_B,][=E,=B,][D,A,][_E,_B,][F,C][=E,=B,][_E,_B,][=E,=B,]_B,^F,E,=B,G,_E, :| %8
[M:5/4] [F,C][E,B,][^G,_E]"_P.M."[_E,_B,][F,C][=E,=B,] [^F,^C][=F,=C][E,B,][_E,_B,] || %9
[M:8/4] [F,C][E,B,][_E,_B,][=E,=B,][D,A,][_E,_B,][F,C][=E,=B,][_E,_B,][=E,=B,][^G,_E]"_P.M."[E,B,][_E,_B,][A,=E][B,F][=E,=B,] | %10
"_P.M." [F,C][E,B,][_E,_B,][=E,=B,][D,A,][_E,_B,][F,C][=E,=B,][_E,_B,][=E,=B,]_B,^F,E,=B,G,_E, | %11
[M:3/4] [_B,F] z z4 |"_P.M." _B,E, _E,G, ^F,G, | [_B,F] z z4 || %14
[M:6/4]"_P.M." _B,^F,E,=B,G,_E, _B,F,=E,=B,G,_E, || %15
 _B,/B,/B,/B,/ ^F,/F,/F,/F,/ E,/E,/E,/E,/ =B,/B,/B,/B,/ G,/G,/G,/G,/ _E,/E,/E,/E,/ | %16
 _B,/B,/B,/B,/ ^F,/F,/F,/F,/ E,/E,/E,/E,/ =B,/B,/B,/B,/ G,/G,/G,/G,/ [_E,_B,] z || %17
[M:8/4] [G,G]8- [G,G]8 |"_P.M." G,_B,G,B,(3(^F,G,F,)"_P.M."D,D,G,B,G,B,(3(B,^CB,)"_P.M."D,D, || %19
 ^F,G,F,D,=F,D,F,D,F,^G,F,D,^F,A,F,D, || %20
[M:6/4] [_E,_B,]2 [=E,=B,][_E,_B,]_E=E ^F,=F,A,B, (D/_E/D/E/) | %21
 _B,/B,/B,/B,/ ^F,/F,/F,/F,/ E,/E,/E,/E,/ =B,/B,/B,/B,/ G,/G,/G,/G,/ _E,/E,/E,/E,/ | %22
 [_B,F]2 .[^F,^C]2 .[E,=B,]2 [B,^F]2 .[G,D]2 .[_E,_B,]2 || %23
"_P.M." _B,^F,E,=B,G,_E, _B,F,=E,=B,G,_E, || %24
 _B,/B,/B,/B,/ ^F,/F,/F,/F,/ E,/E,/E,/E,/ =B,/B,/B,/B,/ G,/G,/G,/G,/ _E,/E,/E,/E,/ | %25
 _B,/B,/B,/B,/ ^F,/F,/F,/F,/ E,/E,/E,/E,/ =B,/B,/B,/B,/ G,/G,/G,/G,/ [_E,_B,] z |: %26
[M:8/4]"_P.M." [F,C][E,B,][_E,_B,][=E,=B,][D,A,][_E,_B,][F,C][=E,=B,][_E,_B,][=E,=B,][^G,_E]"_P.M."[E,B,][_E,_B,][A,=E][B,F][=E,=B,] | %27
"_P.M." [F,C][E,B,][_E,_B,][=E,=B,][D,A,][_E,_B,][F,C][=E,=B,][_E,_B,][=E,=B,]_B,^F,E,=B,G,_E, :| %28
[M:5/4] [F,C][E,B,][^G,_E]"_P.M."[_E,_B,][F,C][=E,=B,] [^F,^C][=F,=C][E,B,][_E,_B,] || %29
[M:4/4] [^G,_E]"_P.M."[_E,_B,][F,C][=E,=B,] [^F,^C][=F,=C][E,B,][_E,_B,] || %30
[M:8/4] ^G,/G,/G,/G,/_E,/E,/E,/E,/F,/F,/F,/F,/=E,/E,/E,/E,/F/F/F/F/F,/F,/F,/F,/^F,/F,/F,/F,/=F,/F,/F,/F,/ || %31
[M:6/4] !-(![^F,^F]!-(![G,G]!-)![F,F]"_P.M."[F,^C][=F,=C][F,C] [F,C][E,B,][E,B,]!-(![_E,_E]!-(![=E,=E]!-)![_E,_E] || %32
[M:8/4] ^G,/G,/G,/G,/_E,/E,/E,/E,/F,/F,/F,/F,/=E,/E,/E,/E,/F/F/F/F/F,/F,/F,/F,/^F,/F,/F,/F,/=F,/F,/F,/F,/ || %33
[M:6/4] !-(![^F,^F]!-(![G,G]!-)![F,F]"_P.M."[F,^C][=F,=C][F,C] [F,C][E,B,][E,B,]!-(![_E,_E]!-(![=E,=E]!-)![_E,_E] || %34
[M:4/4] [^G,_E]"_P.M."[_E,_B,][F,C][=E,=B,] [^F,^C][=F,=C][E,B,][_E,_B,] | [^G,_E] z z6 |] %36

